X: 2
T: Devils Of Dublin
R: reel
M: 4/4
L: 1/8
K: Dmaj
|:d2dA BAGB|AFBF A~F3|Ad(3ddd Adfd|(3efe df e~B3||dcBA BAGB|AFBF A~F3|ABde fece|1 dBAG FDFA:|2 dBAG FDD2|||:a3g~f3e|deed BAFB|Ad(3ddd Adfd|e~B3 G~B3||agfe ~f3e|deed BAFB|ABde fece|1 dBAG FDD2:|2 dBAG FDFA||


Tune 538	Setting 13491

